assets/icons/icon_camera.svg

<svg width="48" height="48" viewBox="0 0 48 48" fill="none" xmlns="http://www.w3.org/2000/svg">
<g clip-path="url(#clip0_2188_3200)">
<path d="M35.9998 10H34.5298V9C34.5298 6.79 32.7398 5 30.5298 5H17.4798C15.2698 5 13.4798 6.79 13.4798 9V10H12.0098C7.58977 10 4.00977 13.58 4.00977 18V35C4.00977 39.42 7.58977 43 12.0098 43H36.0098C40.4298 43 44.0098 39.42 44.0098 35V18C44.0098 13.58 40.4298 10 36.0098 10H35.9998ZM16.4698 9C16.4698 8.45 16.9198 8 17.4698 8H30.5198C31.0698 8 31.5198 8.45 31.5198 9V10H16.4698V9ZM40.9498 35C40.9498 37.73 38.7298 39.95 35.9998 39.95H11.9998C9.26977 39.95 7.04977 37.73 7.04977 35V18C7.04977 15.27 9.26977 13.05 11.9998 13.05H35.9998C38.7298 13.05 40.9498 15.27 40.9498 18V35Z" fill="black"/>
<path d="M24.0001 17.3701C18.9601 17.3701 14.8701 21.4601 14.8701 26.5001C14.8701 31.5401 18.9601 35.6301 24.0001 35.6301C29.0401 35.6301 33.1301 31.5401 33.1301 26.5001C33.1301 21.4601 29.0401 17.3701 24.0001 17.3701ZM24.0001 32.6301C20.6201 32.6301 17.8701 29.8801 17.8701 26.5001C17.8701 23.1201 20.6201 20.3701 24.0001 20.3701C27.3801 20.3701 30.1301 23.1201 30.1301 26.5001C30.1301 29.8801 27.3801 32.6301 24.0001 32.6301Z" fill="black"/>
<path d="M36 20C37.1046 20 38 19.1046 38 18C38 16.8954 37.1046 16 36 16C34.8954 16 34 16.8954 34 18C34 19.1046 34.8954 20 36 20Z" fill="black"/>
</g>
<defs>
<clipPath id="clip0_2188_3200">
<rect width="48" height="48" fill="white"/>
</clipPath>
</defs>
</svg>

<?xml version="1.0" encoding="UTF-8"?>
<svg xmlns="http://www.w3.org/2000/svg" viewBox="0 0 48 48">
  <defs>
    <style>
      .cls-1 {
        fill: none;
        opacity: .2;
      }
    </style>
  </defs>
  <g id="guid">
    <rect class="cls-1" x="0" width="48" height="48"/>
    <rect class="cls-1" x="4" y="4" width="40" height="40"/>
  </g>
  <g id="Layer_2" data-name="Layer 2">
    <g>
      <path d="M36,10h-1.47v-1c0-2.21-1.79-4-4-4h-13.05c-2.21,0-4,1.79-4,4v1h-1.47c-4.42,0-8,3.58-8,8v17c0,4.42,3.58,8,8,8h24c4.42,0,8-3.58,8-8v-17c0-4.42-3.58-8-8-8ZM16.47,9c0-.55.45-1,1-1h13.05c.55,0,1,.45,1,1v1h-15.05v-1ZM40.95,35c0,2.73-2.22,4.95-4.95,4.95H12c-2.73,0-4.95-2.22-4.95-4.95v-17c0-2.73,2.22-4.95,4.95-4.95h24c2.73,0,4.95,2.22,4.95,4.95v17Z"/>
      <path d="M24,17.37c-5.04,0-9.13,4.09-9.13,9.13s4.09,9.13,9.13,9.13,9.13-4.09,9.13-9.13-4.09-9.13-9.13-9.13ZM24,32.63c-3.38,0-6.13-2.75-6.13-6.13s2.75-6.13,6.13-6.13,6.13,2.75,6.13,6.13-2.75,6.13-6.13,6.13Z"/>
      <circle cx="36" cy="18" r="2"/>
    </g>
  </g>
</svg>
